data/yrsa.svg

<svg width="24.528" height="14" viewBox="0 0 24.528 14" xmlns="http://www.w3.org/2000/svg"><path transform="translate(0 10.192) scale(.014 -.014)" d="m243 195-177 308q-7 13-23 18l-45 11v37h221v-37l-66-14 147-267h-28l137 267-68 14v37h187v-37l-45-10q-8-3-13.5-6.5t-9.5-11.5l-161-309zm-103-195v37l70 13q20 3 20 22v156h82v-156q0-19 19-22l70-13v-37z"/><path transform="translate(7.476 10.192) scale(.014 -.014)" d="m160 321q13 24 36.5 48.5t54 40.5 62.5 16q11 0 25.5-3t24.5-8q2-30-0.5-68.5t-9.5-70.5h-37l-11 57q-3 12-8.5 17t-16.5 5q-29 0-60-14.5t-56-45.5zm18 1v-255q0-21 21-23l73-8v-36h-236v37l44 7q20 3 20 23v271q0 22-20 25l-50 6v36q29 9 62.5 14t62.5 6l12-12z"/><path transform="translate(12.936 10.192) scale(.014 -.014)" d="m47 21q-4 30-3 58.5t4 53.5h42l15-55q5-22 17-30 10-6 29.5-13t46.5-7q38 0 57.5 17.5t19.5 47.5q0 23-13 37.5t-38 26.5-61 27q-49 20-80 45.5t-31 75.5q0 60 42.5 90.5t110.5 30.5q32 0 66-7t57-17q1-27-1-54t-7-53h-39l-12 50q-3 10-7 17t-13 12-21.5 9-29.5 5q-32 1-53-14t-21-47q0-24 14-39t35.5-24.5 45.5-18.5q34-13 64-29t48.5-41 18.5-63q0-58-45-90t-117-32q-43 0-80 10t-61 21z"/><path transform="translate(18.382 10.192) scale(.014 -.014)" d="m152-8q-50 0-83.5 26t-33.5 75q0 42 24.5 66.5t61.5 35.5 75 14l98 8v-38l-85-8q-44-3-67.5-20t-23.5-51q0-27 15.5-42t46.5-15q33 0 65.5 15t49.5 37l9-19q-21-37-61.5-60.5t-90.5-23.5zm-105 346q15 42 60 64t103 22q73 0 109-36.5t36-111.5v-207q0-22 22-24l41-4v-34q-10-3-31-8t-39-5q-30 0-47.5 17t-21.5 50v204q0 56-22.5 78.5t-68.5 22.5q-34 0-65-11t-57-36z"/></svg>

<?xml version="1.0" encoding="utf-8" ?>
<svg baseProfile="tiny" height="100%" version="1.2" width="100%" xmlns="http://www.w3.org/2000/svg" xmlns:ev="http://www.w3.org/2001/xml-events" xmlns:xlink="http://www.w3.org/1999/xlink"><defs /><g><path d="M243 195 66 503Q59 516 43 521L-2 532V569H219V532L153 518L300 251H272L409 518L341 532V569H528V532L483 522Q475 519 469.5 515.5Q464 512 460 504L299 195ZM140 0V37L210 50Q230 53 230 72V228H312V72Q312 53 331 50L401 37V0Z" transform="translate(0.0, 72) scale(0.072, -0.072)" /><path d="M160 321Q173 345 196.5 369.5Q220 394 250.5 410.0Q281 426 313 426Q324 426 338.5 423.0Q353 420 363 415Q365 385 362.5 346.5Q360 308 353 276H316L305 333Q302 345 296.5 350.0Q291 355 280 355Q251 355 220.0 340.5Q189 326 164 295ZM178 322V67Q178 46 199 44L272 36V0H36V37L80 44Q100 47 100 67V338Q100 360 80 363L30 369V405Q59 414 92.5 419.0Q126 424 155 425L167 413Z" transform="translate(38.448, 72) scale(0.072, -0.072)" /><path d="M47 21Q43 51 44.0 79.5Q45 108 48 133H90L105 78Q110 56 122 48Q132 42 151.5 35.0Q171 28 198 28Q236 28 255.5 45.5Q275 63 275 93Q275 116 262.0 130.5Q249 145 224.0 157.0Q199 169 163 184Q114 204 83.0 229.5Q52 255 52 305Q52 365 94.5 395.5Q137 426 205 426Q237 426 271.0 419.0Q305 412 328 402Q329 375 327.0 348.0Q325 321 320 295H281L269 345Q266 355 262.0 362.0Q258 369 249 374Q240 379 227.5 383.0Q215 387 198 388Q166 389 145.0 374.0Q124 359 124 327Q124 303 138.0 288.0Q152 273 173.5 263.5Q195 254 219 245Q253 232 283.0 216.0Q313 200 331.5 175.0Q350 150 350 112Q350 54 305.0 22.0Q260 -10 188 -10Q145 -10 108.0 0.0Q71 10 47 21Z" transform="translate(66.52799999999999, 72) scale(0.072, -0.072)" /><path d="M152 -8Q102 -8 68.5 18.0Q35 44 35 93Q35 135 59.5 159.5Q84 184 121.0 195.0Q158 206 196 209L294 217V179L209 171Q165 168 141.5 151.0Q118 134 118 100Q118 73 133.5 58.0Q149 43 180 43Q213 43 245.5 58.0Q278 73 295 95L304 76Q283 39 242.5 15.5Q202 -8 152 -8ZM47 338Q62 380 107.0 402.0Q152 424 210 424Q283 424 319.0 387.5Q355 351 355 276V69Q355 47 377 45L418 41V7Q408 4 387.0 -1.0Q366 -6 348 -6Q318 -6 300.5 11.0Q283 28 279 61V265Q279 321 256.5 343.5Q234 366 188 366Q154 366 123.0 355.0Q92 344 66 319Z" transform="translate(94.53599999999999, 72) scale(0.072, -0.072)" /></g></svg>
